X:1
T:Title
%%score { ( 1 3 ) | ( 2 4 5 ) }
L:1/8
M:6/8
K:Bb
V:1 treble nm="Grand Piano"
V:3 treble 
V:2 bass 
V:4 bass 
V:5 bass 
V:1
 z3 z2[Q:1/4=100] [DF] | [DF][DG][DA] [DB][Dc][DB] | [EA]EE E2 E | EFG ABA | [DG]DD D2 [DF] | %5
 [DF][DG][DA] [FB][Fc][FB] | [FA]GG G2 G | [=EG][EA][EB] [EB][EA][EG] |[M:15/16] AA/-A/Bc3/2- c3 | %9
[M:4/4] [Fd]2 [Gd]2 [Gd]2 [Fd]2 | z4 [Ae]4 | (3[Fe]ee (3[Ge]ee [Ge]2 [Fe]2 | z4 [Bd]4 | %13
 [Fd]2 [Gd]2 [Gd]2 [Fd]2 | [Ff]2 [eg]>f z2 [B,E]2 | (3[Fe]ee (3[Ae]ee [ce]2 [df]2 | %16
[M:7/8] B2- [GB-e]2 [FBd]2 z |] %17
V:2
 z3 z2 [B,,B,] | [B,,B,][B,,B,][B,,B,] [B,,F,][B,,F,][B,,F,] | %2
 [C,F,][F,A,C][F,A,C] [F,A,C]2 [F,A,C] | [F,A,C][F,A,D][F,A,E] [F,CE][F,CE][F,CE] | %4
 [B,,B,][B,,F,B,][B,,F,B,] [B,,F,B,]2 [B,,B,] | [B,,B,][B,,B,][B,,B,] [D,B,][D,B,][D,B,] | %6
 [E,B,][E,B,E][E,B,E] [E,B,E]2 [E,B,E] | [C,B,][C,A,][C,G,] [C,G,][C,A,][C,B,] | %8
[M:15/16] [F,CE][F,CE]/-[F,CE]/[F,G,E][F,A,E]3/2- [F,A,E]3 |[M:4/4] B,,2 [F,B,D]2 F,,2 [F,B,D]2 | %10
 z z/[K:treble] A/ z z/ A/[K:bass] F,,2 F,2 | (3z[K:treble] FF (3z GG[K:bass] F,,2 [F,A,C]2 | %12
 z z/[K:treble] B/ z z/ B/[K:bass] F,,2 F,2 | B,,2 [F,B,D]2 F,,2 [F,B,D]2 | %14
 z z/[K:treble] d/ z z/ d/[K:bass] E,2 G,2 | (3z[K:treble] FF (3z AA[K:bass] F,,2 [F,A,]2 | %16
[M:7/8] [B,,B,]- [B,,B,]3 [B,,,B,,]2 z |] %17
V:3
 x6 | x6 | x6 | x6 | x6 | x6 | x6 | x6 |[M:15/16] x15/2 |[M:4/4] x8 | [Fe]2 [Ae]>e z2 [A,C]2 | x8 | %12
 [Fd]2 [Bd]>d z2 [B,D]2 | x8 | z4 [Ge]4 | x8 |[M:7/8] [Fd]2 z z z z2 |] %17
V:4
 x6 | x6 | x6 | x6 | x6 | x6 | x6 | x6 |[M:15/16] x15/2 |[M:4/4] x8 | %10
 C,2[K:treble] [F,A,C]2[K:bass] z4 | C,2[K:treble] [A,C]2[K:bass] z4 | %12
 B,,2[K:treble] [F,B,D]2[K:bass] z4 | x8 | D,2[K:treble] [F,B,D]2[K:bass] z4 | %15
 F,,2[K:treble] [A,C]2[K:bass] z4 |[M:7/8] x7 |] %17
V:5
 x6 | x6 | x6 | x6 | x6 | x6 | x6 | x6 |[M:15/16] x15/2 |[M:4/4] x8 | %10
 x3/2[K:treble] x5/2[K:bass] x4 | z2[K:treble] F,2[K:bass] z4 | x3/2[K:treble] x5/2[K:bass] x4 | %13
 x8 | x3/2[K:treble] x5/2[K:bass] x4 | z2[K:treble] F,2[K:bass] z4 |[M:7/8] x7 |] %17

